X: 367
%
U:~=!turn!
T: The Marchioness of Tullibardine
C:
O:Scotland
B:Keith Norman MacDonald : "The Skye collection of the best reels & strathspeys extant" : 1887
Z:Ralph Palmer
R:March
M:2/4
L:1/16
K:A
ed | c2BA AA cA | ceAf eAcA | =g2de d=GBG | Bd=GB =g2BG | c2BA AA cA | ceAf eAcA |
Bd=Gd =g2BG | c2A2 A4 :| g2 | a2gf eAcA | ceAf eAcA | =g2fe d=GBG | Bd=GB =g2BG |
Aa ^ga eAcA | ceAf eAcA | Bd=Gd =g2BG | c2A2 A3^g || a2gf eAcA | ceAf eAcA |
=g2fe d=GBG | Bd=GB =g2BG | c2Bc d2cd | edef eAcA | Bd=Gd =g2BG | {/d}c2A2 A4 |]


